X:402
T:
R:polska
S:Uppt. efter Elisabet Olofsdotter Flors i Burs.
O:Gotland, Burs
M:3/4
L:1/16
K:C
c3e e2 c2 c2 G2|c3 e e2 c2 c2 G2|
w:Hej_ i ku-ra-gen! Nu har jag tömt gla-sen.
c2 c2 d2 d2 e2 f2|a3 g g4 z4::
w:Le-ver, le-ver, le-ver gran-nen vår?
f2 f2 a2 a2 f2 d2|e2 e2 g2 g2 e2 c2|d2 d2 f2 f2 d2 B2|cBcd ecef g4|
w:Tra-la-la-la-la-la-
f2 f2 a2 a2 f2 d2|e2e2g2g2e2c2|d2d2f2f2d2B2|G2AB B2c2 c4:|

